X:2769
T:Catherinette (Alain Floutard)
E:14
M:3/4
L:1/8
K:G
g ed|G2 Gg ed|G2G2 AB|c2 dc BA|B2 Gg ed|
G2 Gg ed|G2G2 AB|c2 dc BA|1 G3:|2 G4||
|:ge|d2 Bc de|d2 c2 ed|c2 AB cd|e2d2ge|
d2 Bc de|d2 c2 ed|cB AB cA|1G4:|2 G3||


